_includes/icons/color-creative-commons.svg

<svg fill="#666" height="50" viewBox="0 0 48 48" width="50" xmlns="http://www.w3.org/2000/svg"><path d="m44 24c0 11.045-8.955 20-20 20s-20-8.955-20-20 8.955-20 20-20 20 8.955 20 20z" fill="#b0bec5"/><path d="m40 24c0 8.838-7.162 16-16 16s-16-7.162-16-16 7.162-16 16-16 16 7.162 16 16z" fill="#455a64"/><path d="m24 11c-7.149 0-13 5.851-13 13s5.851 13 13 13 13-5.851 13-13-5.851-13-13-13zm-5.5 18c-1.398 0-2.5-.398-3.301-1.199-.801-.903-1.199-2.301-1.199-3.801 0-1 .199-2 .5-2.801.398-.699.898-1.301 1.602-1.699.699-.398 1.5-.602 2.398-.602 1.301 0 2.301.301 3.102.902 1 .801 1.297 1.699 1.297 3.098h-2.598c0-.598-.102-1-.402-1.199-.297-.301-.797-.398-1.398-.398s-1.103.199-1.399.699c-.301.5-.5 1-.5 2s.098 1.398.398 1.801c.301.398.801.699 1.5.699.602 0 1-.102 1.398-.398.301-.301.5-.602.5-1.102h2.602c0 .699-.5 4-4.5 4zm11 0c-1.398 0-2.5-.398-3.301-1.199-.801-.903-1.199-2.301-1.199-3.801 0-1 .199-2 .5-2.801.398-.699.898-1.301 1.602-1.699.699-.398 1.5-.602 2.398-.602 1.301 0 2.301.301 3.102.902 1 .801 1.297 1.5 1.297 3.098h-2.598c0-.598-.102-1-.402-1.199-.297-.301-.797-.398-1.398-.398s-1.103.199-1.399.699c-.301.5-.5 1-.5 2s.098 1.398.398 1.801c.301.398.801.699 1.5.699.602 0 1-.102 1.398-.398.301-.301.5-.602.5-1.102h2.602c0 1.301-.801 4-4.5 4z" fill="#fff"/></svg>

<svg xmlns="http://www.w3.org/2000/svg" viewBox="0 0 48 48" width="50" height="50" fill="#666"><path d="M44,24c0,11.045-8.955,20-20,20S4,35.045,4,24S12.955,4,24,4S44,12.955,44,24z" fill="#b0bec5"/><path d="M40,24c0,8.838-7.162,16-16,16S8,32.838,8,24S15.162,8,24,8S40,15.162,40,24z" fill="#455a64"/><path d="M24,11c-7.149,0-13,5.851-13,13s5.851,13,13,13s13-5.851,13-13S31.149,11,24,11z M18.5,29 c-1.398,0-2.5-0.398-3.301-1.199C14.398,26.898,14,25.5,14,24c0-1,0.199-2,0.5-2.801c0.398-0.699,0.898-1.301,1.602-1.699 c0.699-0.398,1.5-0.602,2.398-0.602c1.301,0,2.301,0.301,3.102,0.902c1,0.801,1.297,1.699,1.297,3.098h-2.598 c0-0.598-0.102-1-0.402-1.199c-0.297-0.301-0.797-0.398-1.398-0.398S17.398,21.5,17.102,22c-0.301,0.5-0.5,1-0.5,2 s0.098,1.398,0.398,1.801c0.301,0.398,0.801,0.699,1.5,0.699c0.602,0,1-0.102,1.398-0.398c0.301-0.301,0.5-0.602,0.5-1.102H23 C23,25.699,22.5,29,18.5,29z M29.5,29c-1.398,0-2.5-0.398-3.301-1.199C25.398,26.898,25,25.5,25,24c0-1,0.199-2,0.5-2.801 c0.398-0.699,0.898-1.301,1.602-1.699c0.699-0.398,1.5-0.602,2.398-0.602c1.301,0,2.301,0.301,3.102,0.902 c1,0.801,1.297,1.5,1.297,3.098h-2.598c0-0.598-0.102-1-0.402-1.199c-0.297-0.301-0.797-0.398-1.398-0.398S28.398,21.5,28.102,22 c-0.301,0.5-0.5,1-0.5,2s0.098,1.398,0.398,1.801c0.301,0.398,0.801,0.699,1.5,0.699c0.602,0,1-0.102,1.398-0.398 c0.301-0.301,0.5-0.602,0.5-1.102H34C34,26.301,33.199,29,29.5,29z" fill="#fff"/></svg>
